flags/language/pt-br.svg

<svg width="512" height="512" viewBox="0 0 512 512" fill="none" xmlns="http://www.w3.org/2000/svg">
<rect x="136" y="512" width="512" height="240" transform="rotate(-90 136 512)" fill="var(--flag-palette-bright-red, #d80027)"/>
<rect x="344" y="512" width="512" height="168" transform="rotate(-90 344 512)" fill="var(--flag-palette-bright-red, #d80027)"/>
<rect y="512" width="512" height="168" transform="rotate(-90 0 512)" fill="var(--flag-palette-dark-green, #496e2d)"/>
<path d="M167 345C216.153 345 256 305.153 256 256C256 206.847 216.153 167 167 167C117.847 167 78 206.847 78 256C78 305.153 117.847 345 167 345Z" fill="var(--flag-palette-yellow, #ffda44)"/>
<path d="M108.5 202.6V267.5C108.5 288.4 119.6 307.6 137.7 318.1C155.8 328.5 178.1 328.5 196.2 318.1C214.3 307.6 225.4 288.4 225.4 267.5V202.5H108.6L108.5 202.6Z" fill="var(--flag-palette-bright-red, #d80027)"/>
<path d="M167 304.2C148.1 304.2 132.7 288.8 132.7 269.9V224.6H201.3V269.7C201.3 288.6 185.9 304 167 304V304.2Z" fill="var(--flag-palette-white, #eeeeee)"/>
<path fill-rule="evenodd" clip-rule="evenodd" d="M167 249.6C163.3 249.6 160.2 246.6 160.2 242.9V233.9H173.8V242.8C173.8 246.6 170.7 249.6 167 249.6ZM167 292.8C163.3 292.8 160.2 289.7 160.2 286V277.1H173.8V286C173.8 289.7 170.7 292.7 167 292.7V292.8ZM160.2 264.4C160.2 268.2 163.3 271.2 167 271.2C170.7 271.2 173.8 268.1 173.8 264.4V255.5H160.2V264.4ZM147.2 271.2C143.5 271.2 140.5 268.2 140.5 264.4V255.5H154V264.4C154 268.1 151 271.2 147.2 271.2ZM180 264.4C180 268.2 183 271.2 186.8 271.2C190.5 271.2 193.5 268.1 193.5 264.4V255.5H180V264.4Z" fill="var(--flag-palette-blue, #0052b4)"/>
<path fill-rule="evenodd" clip-rule="evenodd" d="M512 0L0 512H512L512 0Z" fill="var(--flag-palette-green, #6da544)"/>
<path d="M467.479 256L256 411.826L166.281 345.718L345.718 166.281L467.479 256Z" fill="var(--flag-palette-yellow, #ffda44)"/>
<path d="M318.963 193.037C335.077 209.151 345.043 231.411 345.043 256C345.043 305.177 305.177 345.043 256 345.043C231.411 345.043 209.151 335.077 193.037 318.963L318.963 193.037Z" fill="var(--flag-palette-white, #eeeeee)"/>
<path d="M255.104 256.895C284.533 265.842 310.163 283.598 328.918 307.076C312.811 330.027 286.167 345.044 255.999 345.044C231.409 345.044 209.153 335.073 193.044 318.956L255.104 256.895ZM318.963 193.037C335.077 209.151 345.043 231.411 345.043 256C345.043 261.837 344.465 267.536 343.393 273.06C325.918 255.005 304.784 240.516 281.2 230.799L318.963 193.037Z" fill="var(--flag-palette-blue, #0052b4)"/>
</svg>

<svg xmlns="http://www.w3.org/2000/svg" width="512" height="512" fill="none"><g clip-path="url(#a)"><path fill="var(--flag-palette-bright-red, #d80027)" d="M136 512V0h240v512z"/><path fill="var(--flag-palette-bright-red, #d80027)" d="M344 512V0h168v512z"/><path fill="var(--flag-palette-dark-green, #496e2d)" d="M0 512V0h168v512z"/><path fill="var(--flag-palette-yellow, #ffda44)" d="M167 345a89 89 0 1 0 0-178 89 89 0 0 0 0 178"/><path fill="var(--flag-palette-bright-red, #d80027)" d="M108.5 202.6v64.9a58.4 58.4 0 1 0 116.9 0v-65z"/><path fill="#EEE" d="M167 304.2a34.4 34.4 0 0 1-34.3-34.3v-45.3h68.6v45.1A34.4 34.4 0 0 1 167 304z"/><path fill="var(--flag-palette-blue, #0052b4)" fill-rule="evenodd" d="M167 249.6c-3.7 0-6.8-3-6.8-6.7v-9h13.6v8.9c0 3.8-3.1 6.8-6.8 6.8m0 43.2a7 7 0 0 1-6.8-6.8v-8.9h13.6v8.9c0 3.7-3.1 6.7-6.8 6.7zm-6.8-28.4c0 3.8 3.1 6.8 6.8 6.8s6.8-3.1 6.8-6.8v-8.9h-13.6zm-13 6.8c-3.7 0-6.7-3-6.7-6.8v-8.9H154v8.9c0 3.7-3 6.8-6.8 6.8m32.8-6.8a6.7 6.7 0 1 0 13.5 0v-8.9H180z" clip-rule="evenodd"/><path fill="var(--flag-palette-green, #6da544)" fill-rule="evenodd" d="M512 0 0 512h512z" clip-rule="evenodd"/><path fill="var(--flag-palette-yellow, #ffda44)" fill-rule="evenodd" d="M345.7 166.3 467.5 256 256 411.8l-89.7-66z" clip-rule="evenodd"/><path fill="#EEE" fill-rule="evenodd" d="m193 319 126-126a89 89 0 0 1-126 126" clip-rule="evenodd"/><path fill="var(--flag-palette-blue, #0052b4)" fill-rule="evenodd" d="M319 193a89 89 0 0 1 24.4 80 184 184 0 0 0-62.2-42.2zm-64 64-62 62a88.7 88.7 0 0 0 135.8-11.8A151 151 0 0 0 255 257" clip-rule="evenodd"/></g><defs><clipPath id="a"><path fill="#fff" d="M0 0h512v512H0z"/></clipPath></defs></svg>
